!!!OTL: Schloss in Oesterreich Es stand ein Schloss in Oesterreich
!!!ARE: Europa, Mitteleuropa, Deutschland (BRD), Hessen und Nassau
!!!YOR: 1, S. 274
!!    1912 aufgezeichnet
!!!SCT: Q0024P
!!!YEM: Copyright 1995, estate of Helmut Schaffrath.
**kern
*ICvox
*Ivox
*M3/4
*k[f#c#]
*D:
{8a
=1
8a
8dd
4.f#
8f#
=2
8f#
8a
4.e}
{8a
=3
8a
8b
4.b
8g
=4
4g
4f#
8r}
{8a
=5
8a
8cc#
4.ee
8g
=6
8f#
8a
4dd}
{4ff#
=7
16ee
16dd
16cc#
16b
4.a
8g
=8
4g
4f#
8r}
==
!!!AGN: Ballade, Gefangenschaft, Hinrichtung, Tod, Vergeltung
!! Vgl. Q0024L und M
!!!ONB: ESAC (Essen Associative Code) Database: BALLADE
!!!AMT: simple triple
!!!AIN: vox
!!!EED: Helmut Schaffrath
!!!EEV: 1.0
*-
